src/topics/icons/cocoapods.svg

<svg height="256" preserveAspectRatio="xMidYMid" viewBox="0 0 256 256" width="256" xmlns="http://www.w3.org/2000/svg"><path d="m255.348897 255.34934h-255.348897v-255.34934h255.348897z" fill="#fa2a00"/><g fill="#fff"><path d="m160.993202 135.983883c-3.837358 21.051873-21.91748 38.274056-49.807213 38.274056-33.3159516 0-53.3750542-24.470951-53.3750542-52.360979 0-27.329028 19.0660368-52.3889919 53.0842342-52.3889919 29.180696 0 47.260818 18.3567147 49.956124 41.2670389h-24.052449c-2.127893-11.6674722-10.958666-20.4842389-25.612855-20.4842389-19.0802645 0-29.8900185 15.0865489-29.8900185 31.6061919 0 17.498628 12.0935667 31.592923 30.1736885 31.592923 13.377453 0 22.201149-7.68887 25.045515-17.506z"/><path d="m188.929083 71.834533-14.696798 6.298533 18.420628 43.076098-18.427705 43.090104 14.703875 6.284526 12.363082-29.116708.063841.134168 8.55418-20.39209z"/></g></svg>

<?xml version="1.0" encoding="UTF-8" standalone="no"?>
<svg width="256px" height="256px" viewBox="0 0 256 256" version="1.1" xmlns="http://www.w3.org/2000/svg" xmlns:xlink="http://www.w3.org/1999/xlink" preserveAspectRatio="xMidYMid">
	<g>
		<path d="M255.348897,255.34934 L0,255.34934 L0,0 L255.348897,0 L255.348897,255.34934 Z" fill="#FA2A00"></path>
		<path d="M160.993202,135.983883 C157.155844,157.035756 139.075722,174.257939 111.185989,174.257939 C77.8700374,174.257939 57.8109348,149.786988 57.8109348,121.89696 C57.8109348,94.567932 76.8769716,69.5079681 110.895169,69.5079681 C140.075865,69.5079681 158.155987,87.8646828 160.851293,110.775007 L136.798844,110.775007 C134.670951,99.1075348 125.840178,90.2907681 111.185989,90.2907681 C92.1057245,90.2907681 81.2959705,105.377317 81.2959705,121.89696 C81.2959705,139.395588 93.3895372,153.489883 111.469659,153.489883 C124.847112,153.489883 133.670808,145.801013 136.515174,135.983883 L160.993202,135.983883 Z" fill="#FFFFFF"></path>
		<path d="M188.929083,71.834533 L174.232285,78.133066 L192.652913,121.209164 L174.225208,164.299268 L188.929083,170.583794 L201.292165,141.467086 L201.356006,141.601254 L209.910186,121.209164 L188.929083,71.834533 Z" fill="#FFFFFF"></path>
	</g>
</svg>
